public/images/languages.svg

<svg width="14" height="14" viewBox="0 0 14 14" fill="none" xmlns="http://www.w3.org/2000/svg">
<path d="M10.737 1.51136C10.72 1.49224 10.7 1.47597 10.6777 1.46305C10.0215 0.930665 9.26086 0.522472 8.43162 0.27425C8.41761 0.268558 8.4029 0.264146 8.38755 0.261108C7.80571 0.0913846 7.19079 0 6.55488 0C5.91896 0 5.30405 0.0913846 4.7222 0.261108C4.70685 0.264114 4.69214 0.268526 4.67814 0.27425C3.79 0.540122 2.98045 0.989403 2.2937 1.57829C2.27093 1.59232 2.25059 1.60985 2.23371 1.63044C1.81592 1.99745 1.44492 2.41658 1.13128 2.87775C1.11503 2.89556 1.10147 2.91574 1.09118 2.93783C0.402118 3.97523 0 5.2189 0 6.55488C0 7.74531 0.319111 8.86261 0.876083 9.82586C0.885036 9.84779 0.897091 9.8681 0.911799 9.88623C1.72112 11.2519 3.01169 12.3 4.54841 12.7953C4.56143 12.8009 4.57511 12.8053 4.58921 12.8085C5.21001 13.0041 5.87029 13.1098 6.55484 13.1098C7.50124 13.1098 8.40124 12.9079 9.21456 12.5454C9.2347 12.5393 9.25408 12.5307 9.27202 12.5195C10.0575 12.1603 10.76 11.6502 11.3427 11.0267C11.3635 11.0106 11.3815 10.9913 11.3961 10.9694C12.0245 10.2809 12.5081 9.45818 12.7989 8.54999C12.8052 8.53576 12.81 8.52083 12.8134 8.50535C13.0059 7.889 13.1097 7.23387 13.1097 6.55494C13.1098 4.52881 12.1857 2.71468 10.737 1.51136ZM8.05978 0.668374C7.87138 1.32863 7.25785 1.80429 6.55488 1.80429C5.85191 1.80429 5.23837 1.32859 5.04997 0.668374C5.53139 0.545238 6.0356 0.479625 6.55488 0.479625C7.07415 0.479625 7.57836 0.545238 8.05978 0.668374ZM2.51458 2.0221H3.98885C4.26131 2.0221 4.48302 2.24378 4.48302 2.51627C4.48302 2.72219 4.3533 2.90851 4.1602 2.97991C4.06607 3.01473 4.00356 3.10449 4.00356 3.20485V5.66306C3.32863 5.67451 2.64801 5.67777 2.53878 5.66389C2.47001 5.64928 2.398 5.66565 2.34211 5.70895C2.2835 5.75438 2.24922 5.82434 2.24922 5.89849V6.3612C2.24922 6.55449 2.09196 6.71175 1.89868 6.71175C1.70539 6.71175 1.54813 6.55449 1.54813 6.3612V3.11798C1.82564 2.71493 2.15045 2.347 2.51458 2.0221ZM1.06851 3.94716V6.36117C1.06851 6.73557 1.31769 7.05273 1.65886 7.15588V7.78281C1.28744 7.99932 1.01028 8.36019 0.904957 8.7882C0.630579 8.09658 0.479625 7.34303 0.479625 6.55488C0.479625 5.62204 0.691204 4.73777 1.06851 3.94716ZM1.3379 9.66467V9.17209C1.3379 8.55031 1.84374 8.04446 2.46556 8.04446C3.08735 8.04446 3.59319 8.55031 3.59319 9.17209V9.34786C3.59319 9.4803 3.70056 9.58767 3.833 9.58767H4.45236C4.83152 9.58767 5.14001 9.89614 5.14001 10.2753C5.14001 10.5989 4.91053 10.882 4.59433 10.9482C4.48325 10.9715 4.40373 11.0694 4.40373 11.1829V12.2363C3.11612 11.7472 2.03665 10.8325 1.3379 9.66467ZM4.88332 12.3962V11.3601C5.31959 11.1861 5.61961 10.7573 5.61961 10.2753C5.61961 9.63167 5.09598 9.10805 4.45233 9.10805H4.07154C4.03777 8.25141 3.33032 7.56484 2.46553 7.56484C2.35349 7.56484 2.2441 7.57645 2.13846 7.59838V7.15591C2.47963 7.05276 2.72881 6.7356 2.72881 6.3612V6.15011C2.99161 6.15567 3.41758 6.15324 4.00353 6.14285V6.21821C4.00353 6.35065 4.1109 6.45802 4.24334 6.45802C4.37578 6.45802 4.48315 6.35065 4.48315 6.21821V3.35517C4.7755 3.18218 4.96262 2.86336 4.96262 2.51624C4.96262 1.97929 4.52577 1.54244 3.98882 1.54244H3.12607C3.57471 1.23459 4.06642 0.985214 4.59036 0.805706C4.83875 1.66532 5.63873 2.28391 6.55484 2.28391C7.47096 2.28391 8.27094 1.66532 8.51932 0.805706C9.17715 1.0311 9.78432 1.36639 10.319 1.78961L10.3282 2.57076H9.29187C9.15943 2.57076 9.05206 2.67813 9.05206 2.81057C9.05206 2.94301 9.15943 3.05038 9.29187 3.05038H9.69156V3.46881H8.92653C8.91313 3.46881 8.89973 3.46993 8.88649 3.47217C8.46685 3.54325 8.13818 3.93229 8.13818 4.35791V4.80367H6.59433C6.46189 4.80367 6.35452 4.91104 6.35452 5.04348V5.72772C6.35452 6.35171 6.86216 6.85934 7.48615 6.85934C7.93904 6.85934 8.34087 6.59146 8.52 6.18889C8.93554 6.18889 9.99996 6.18889 10.3901 6.18889C10.6115 6.56843 10.9915 6.82893 11.4222 6.90021V7.34594H7.36087C6.80598 7.34594 6.35449 7.79739 6.35449 8.35232C6.35449 8.90725 6.80594 9.3587 7.36087 9.3587H7.97108V10.854C7.97108 11.4083 8.21457 11.9169 8.62801 12.2657C7.9808 12.5014 7.2826 12.6301 6.55488 12.6301C5.97536 12.6301 5.41458 12.5485 4.88332 12.3962ZM11.4359 10.168V8.69353H12.2411C12.0409 9.22418 11.7686 9.7197 11.4359 10.168ZM12.3999 8.2139H11.196C11.0636 8.2139 10.9562 8.32127 10.9562 8.45371V10.7383C10.4426 11.2785 9.83065 11.7243 9.14962 12.0473C8.71594 11.7982 8.45074 11.3505 8.45074 10.854V9.11886C8.45074 8.98642 8.34337 8.87904 8.21093 8.87904H7.3609C7.07047 8.87904 6.83415 8.64275 6.83415 8.35229C6.83415 8.06183 7.07044 7.82553 7.3609 7.82553H11.662C11.7945 7.82553 11.9018 7.71816 11.9018 7.58572V6.68006C11.9018 6.54762 11.7945 6.44025 11.662 6.44025C11.2708 6.44025 10.9148 6.2091 10.7552 5.85133C10.7166 5.7649 10.6309 5.70923 10.5362 5.70923L8.37483 5.70927C8.19702 5.70927 8.13879 5.8192 8.11973 5.89018L8.11794 5.88973C8.04424 6.17821 7.78444 6.37972 7.48615 6.37972C7.12662 6.37972 6.83415 6.08724 6.83415 5.72772V5.28329H8.37799C8.51044 5.28329 8.61781 5.17592 8.61781 5.04348V4.35791C8.61781 4.17526 8.7709 3.98843 8.94948 3.94843H9.9314C10.0638 3.94843 10.1712 3.84106 10.1712 3.70862V3.05038H10.5709C10.635 3.05038 10.6964 3.02474 10.7415 2.97914C10.7865 2.93355 10.8114 2.87184 10.8107 2.80776L10.8037 2.21708C11.93 3.32051 12.6302 4.85736 12.6302 6.55488C12.6301 7.12982 12.5498 7.68638 12.3999 8.2139Z" fill="#2C3639"/>
<path d="M7.59748 4.30165C7.72992 4.30165 7.83729 4.19428 7.83729 4.06184V3.81202C7.83729 3.67958 7.72992 3.5722 7.59748 3.5722C7.46504 3.5722 7.35767 3.67958 7.35767 3.81202V4.06184C7.35767 4.19428 7.46504 4.30165 7.59748 4.30165Z" fill="#2C3639"/>
</svg>

<svg width="14" height="14" fill="none" xmlns="http://www.w3.org/2000/svg"><path d="M10.74 1.51a6.54 6.54 0 1 0-8.37 10.06 6.54 6.54 0 0 0 8.37-10.06ZM8.06.67c-.19.66-.8 1.13-1.5 1.13S5.23 1.33 5.04.67a6.07 6.07 0 0 1 3.01 0ZM2.51 2.02H4a.5.5 0 0 1 .17.96.24.24 0 0 0-.16.22v2.46c-.67.01-1.35.02-1.46 0a.24.24 0 0 0-.3.24v.46a.35.35 0 0 1-.7 0V3.12c.29-.4.61-.77.97-1.1ZM1.07 3.95v2.41c0 .38.25.7.59.8v.62c-.37.22-.65.58-.76 1a6.04 6.04 0 0 1 .17-4.83Zm.27 5.71v-.49a1.13 1.13 0 0 1 2.25 0v.18c0 .13.11.24.24.24h.62a.69.69 0 0 1 .14 1.36.24.24 0 0 0-.19.23v1.06a6.1 6.1 0 0 1-3.06-2.58Zm3.54 2.74v-1.04c.44-.17.74-.6.74-1.08 0-.65-.52-1.17-1.17-1.17h-.38A1.6 1.6 0 0 0 2.14 7.6v-.44c.34-.1.59-.42.59-.8v-.21H4v.07a.24.24 0 0 0 .48 0V3.36a.97.97 0 0 0-.5-1.81h-.85c.44-.32.94-.56 1.46-.74a2.06 2.06 0 0 0 1.96 1.47c.92 0 1.72-.61 1.97-1.47.66.22 1.26.56 1.8.98v.78H9.3a.24.24 0 0 0 0 .48h.4v.42h-.8a.92.92 0 0 0-.75.89v.44H6.59c-.13 0-.24.11-.24.24v.69a1.13 1.13 0 0 0 2.17.46h1.87c.22.38.6.64 1.03.71v.45H7.36a1 1 0 0 0 0 2h.61v1.5c0 .56.24 1.07.66 1.42a6.05 6.05 0 0 1-3.75.13Zm6.56-2.23V8.69h.8c-.2.53-.47 1.03-.8 1.48Zm.96-1.96h-1.2c-.14 0-.24.11-.24.24v2.29a6.1 6.1 0 0 1-1.81 1.3c-.43-.24-.7-.69-.7-1.19V9.12c0-.13-.1-.24-.24-.24h-.85a.53.53 0 0 1 0-1.05h4.3c.13 0 .24-.11.24-.24v-.91c0-.13-.1-.24-.24-.24a1 1 0 0 1-.9-.59.24.24 0 0 0-.22-.14H8.37c-.17 0-.23.1-.25.18a.65.65 0 0 1-1.29-.16v-.45h1.55c.13 0 .24-.1.24-.24v-.68c0-.18.15-.37.33-.41h.98c.13 0 .24-.1.24-.24v-.66h.4a.24.24 0 0 0 .24-.24v-.6a6.06 6.06 0 0 1 1.59 6Z" fill="#2C3639"/><path d="M7.6 4.3c.13 0 .24-.1.24-.24v-.25a.24.24 0 0 0-.48 0v.25c0 .13.1.24.24.24Z" fill="#2C3639"/></svg>
